X:136 
T:Mary of the Grove* (reel)  
T:Eddie Moloney's
B:CRE3.189 (gan ainm)
F:file ID: cre.3/136mary_g
R:reel
L:1/8
Q:180
M:C
K:Em
B2GB EBGB|BAFA DAFA|B2GB EFGA|(3B^cd ed Bded|
B2GB EGBd|(3ABA FA DAFA|BAGF GFGA|(3Bcd ed Bdef||
g2gf gfed|B3A Bdef|g2ef gefd|(3B^cB Ac BEE2|
g2gf gfed|BdAB GBAG|E3F GFGA|(3B^cd ed Bded||

%%%

